X: 1
T: The Fireside Reel
T: 8 x 32R3C
P: The Fireside Reel
C: (a.k.a. Peat Fire Flame ?)
C: Arr. T. Traub 11-29-2005
R: Reel
M: 4/4
L: 1/4
K: Em
B|"Em"E>F GF|"D"ED "G"B2|"Am"B A A G/A/|"B"BAAB|"Em"E>F GF|"D"ED "G"B>A|"C"GE "D"FD|"Em"E2 E||
"D"F|"G"G>A B g/f/|ed B2|"Am"BA A G/A/|"D"BAAB|"G"G>A B g/f/|"Em"ed "Bm"B>A|"Em"GE"D"FD|"Em"E2 E |]
